X: 3257
T: Behind The Haystack
R: jig
M: 6/8
K: Gmajor
de|:g2a bgd|g2a bge|d2B AGA|B2A ABd|
g2a bgd|c'bc' age|d^cd e/f/ge|dBG GBd:|
|:e2e edB|def g2e|d2B AGA|B2A ABd|
e2e edB|def g2e|d^cd e/f/ge|dBG GBd:|

